Alex-Andersen/wwwroot/icons/calendar-days-solid.svg

<?xml version="1.0" encoding="utf-8"?>
<!-- Generator: Adobe Illustrator 25.4.1, SVG Export Plug-In . SVG Version: 6.00 Build 0)  -->
<svg version="1.1" id="Layer_1" focusable="false" xmlns="http://www.w3.org/2000/svg" xmlns:xlink="http://www.w3.org/1999/xlink"
	 x="0px" y="0px" viewBox="0 0 448 512" style="enable-background:new 0 0 448 512;" xml:space="preserve">
<style type="text/css">
	.st0{fill:#77A198;}
</style>
<path class="st0" d="M160,32v32h128V32c0-17.7,14.3-32,32-32s32,14.3,32,32v32h48c26.5,0,48,21.5,48,48v48H0v-48
	c0-26.5,21.5-48,48-48h48V32c0-17.7,14.3-32,32-32S160,14.3,160,32z M0,192h448v272c0,26.5-21.5,48-48,48H48c-26.5,0-48-21.5-48-48
	V192z M64,304c0,8.8,7.2,16,16,16h32c8.8,0,16-7.2,16-16v-32c0-8.8-7.2-16-16-16H80c-8.8,0-16,7.2-16,16V304z M192,304
	c0,8.8,7.2,16,16,16h32c8.8,0,16-7.2,16-16v-32c0-8.8-7.2-16-16-16h-32c-8.8,0-16,7.2-16,16V304z M336,256c-8.8,0-16,7.2-16,16v32
	c0,8.8,7.2,16,16,16h32c8.8,0,16-7.2,16-16v-32c0-8.8-7.2-16-16-16H336z M64,432c0,8.8,7.2,16,16,16h32c8.8,0,16-7.2,16-16v-32
	c0-8.8-7.2-16-16-16H80c-8.8,0-16,7.2-16,16V432z M208,384c-8.8,0-16,7.2-16,16v32c0,8.8,7.2,16,16,16h32c8.8,0,16-7.2,16-16v-32
	c0-8.8-7.2-16-16-16H208z M320,432c0,8.8,7.2,16,16,16h32c8.8,0,16-7.2,16-16v-32c0-8.8-7.2-16-16-16h-32c-8.8,0-16,7.2-16,16V432z"
	/>
</svg>

<svg aria-hidden="true" focusable="false" data-prefix="fas" data-icon="calendar-days" class="svg-inline--fa fa-calendar-days" role="img" xmlns="http://www.w3.org/2000/svg" viewBox="0 0 448 512"><path fill="currentColor" d="M160 32V64H288V32C288 14.33 302.3 0 320 0C337.7 0 352 14.33 352 32V64H400C426.5 64 448 85.49 448 112V160H0V112C0 85.49 21.49 64 48 64H96V32C96 14.33 110.3 0 128 0C145.7 0 160 14.33 160 32zM0 192H448V464C448 490.5 426.5 512 400 512H48C21.49 512 0 490.5 0 464V192zM64 304C64 312.8 71.16 320 80 320H112C120.8 320 128 312.8 128 304V272C128 263.2 120.8 256 112 256H80C71.16 256 64 263.2 64 272V304zM192 304C192 312.8 199.2 320 208 320H240C248.8 320 256 312.8 256 304V272C256 263.2 248.8 256 240 256H208C199.2 256 192 263.2 192 272V304zM336 256C327.2 256 320 263.2 320 272V304C320 312.8 327.2 320 336 320H368C376.8 320 384 312.8 384 304V272C384 263.2 376.8 256 368 256H336zM64 432C64 440.8 71.16 448 80 448H112C120.8 448 128 440.8 128 432V400C128 391.2 120.8 384 112 384H80C71.16 384 64 391.2 64 400V432zM208 384C199.2 384 192 391.2 192 400V432C192 440.8 199.2 448 208 448H240C248.8 448 256 440.8 256 432V400C256 391.2 248.8 384 240 384H208zM320 432C320 440.8 327.2 448 336 448H368C376.8 448 384 440.8 384 432V400C384 391.2 376.8 384 368 384H336C327.2 384 320 391.2 320 400V432z"></path></svg>
